X: 136003
Q: "Irish Jig."
M: 6/8
L: 1/8
K: D	% and Bm
uA |\
|: uf |\
fbb faa | fbb afe | fbb faa | fed e3 |\
fbb faa | fbb afe | afe f2e | dBB B2 H:|


